X:1
T:Title
%%score { ( 1 4 ) | ( 2 3 ) }
L:1/8
Q:1/4=90
M:2/4
K:Ab
V:1 treble nm="Grand Piano"
V:4 treble 
V:2 bass 
V:3 bass 
V:1
 E>E FG | AB c2 | [EGe]>[EGB] [EGB][EGe] | [EBd]2 [EAc]2 | F>F G=A | Bc d2 | [=Ec]>[EG] [EG][Ec] | %7
w: H.~W.~Fairbank * * *|||||||
 A2 F2 | F>F GF | Ee .[G=d]2 | [B,AB]>[Ac] [=DB][DF] | [FA]2 [EG]2 | [FG]>[FG] [FA][FG] | z2 e2 | %14
w: |||||||
 [=Ae][FA] [A=d][Ac] | c2 B2 | [=Dc]>[DB] [CDA]D | F2 E2 | c>c dc | cB F2 | .E2 .[Ge]2 | d2 c2 | %22
w: ||||||||
 c>c cc | [Fc][FB] [DF]2 | .[DE]2 .[Ge]2 | A4 |] %26
w: ||||
V:2
 E,>E, F,G, | A,B, C2 | E,>E, E,E, | A,2 A,2 | F,>F, G,=A, | B,C D2 | [C,C]>[C,C] [C,C][C,C] | %7
 [F,CF]2 [F,A,]2 | [A,B,=D]>[A,B,D] [A,B,D][A,B,D] | [G,B,][G,B,E] z[K:treble] c | %10
 =D,>[D,B,] [B,,B,][B,,B,] | [E,B,]2 [E,B,]2 | [=D,_C]>[D,C] [D,C][D,C] | %13
 [C,C][K:treble][CEG] [Gc]G | [F,C][F,C] [F,F][F,E] | [B,E=A]2 [B,=D]2 | %16
 [B,,A,]>[B,,A,] B,,[B,,B,] | [E,A,D]2 [E,G,]2 | [A,E]>[A,E] [A,F][K:bass][A,E] | %19
 [D,F,D][D,F,D] [D,A,D]2 | .[E,G,D]2 .[E,B,E]2 | F2 E2 | [A,EA]>[A,FA] [A,FA][A,EA] | %23
 [D,D][D,D] [D,A,]2 | .[E,G,]2 .[E,B,]2 | [A,C]4 |] %26
V:3
 x4 | x4 | x4 | x4 | x4 | x4 | x4 | x4 | x4 | z2 [E,B,]2[K:treble] | x4 | x4 | x4 | %13
 z2[K:treble] [CE]2 | x4 | x4 | x4 | x4 | x3[K:bass] x | x4 | x4 | [A,A]4 | x4 | x4 | x4 | x4 |] %26
V:4
 x4 | x4 | x4 | x4 | x4 | x4 | x4 | x4 | x4 | x4 | x4 | x4 | x4 | [EG]f z B | x4 | x4 | x4 | x4 | %18
 x4 | x4 | x4 | x4 | x4 | x4 | x4 | x4 |] %26

